X: 6
T: RIQUENIEE 3
M: 6/8
L: 1/8
Q:1/4=80
K:G 
|GG/2GA/2 B/2A/2G/2A3/2|cc/2B/2c/2B/2 A/2B/2A/2G3/2|GG/2GA/2 B/2A/2G/2A3
/2|cc/2B/2c/2B/2 A/2B/2A/2G3/2|
dd/2dB/2 G/2F/2G/2A3/2|cc/2B/2c/2B/2 A/2B/2A/2G3/2|dd/2dB/2 G/2F/2G/2A3/
2|cc/2B/2c/2B/2 A/2B/2A/2G3/2|
